static/assets/img/icons/theme/home/box.svg

<svg height="24" viewBox="0 0 24 24" width="24" xmlns="http://www.w3.org/2000/svg"><g fill="none" fill-rule="evenodd"><path d="m0 0h24v24h-24z" opacity="0"/><g fill="#000"><path d="m4 7h16v12.5c0 .8284271-.6715729 1.5-1.5 1.5h-13c-.82842712 0-1.5-.6715729-1.5-1.5zm6 3c-.55228475 0-1 .4477153-1 1s.44771525 1 1 1h4c.5522847 0 1-.4477153 1-1s-.4477153-1-1-1z"/><rect height="4" opacity=".3" rx="1" width="20" x="2" y="3"/></g></g></svg>

<svg width="24px" height="24px" viewBox="0 0 24 24" version="1.1" xmlns="http://www.w3.org/2000/svg" xmlns:xlink="http://www.w3.org/1999/xlink">
    <title>Icon For Box</title>
    <g stroke="none" stroke-width="1" fill="none" fill-rule="evenodd">
        <rect opacity="0" x="0" y="0" width="24" height="24"></rect>
        <path d="M4,7 L20,7 L20,19.5 C20,20.3284271 19.3284271,21 18.5,21 L5.5,21 C4.67157288,21 4,20.3284271 4,19.5 L4,7 Z M10,10 C9.44771525,10 9,10.4477153 9,11 C9,11.5522847 9.44771525,12 10,12 L14,12 C14.5522847,12 15,11.5522847 15,11 C15,10.4477153 14.5522847,10 14,10 L10,10 Z" fill="#000000"></path>
        <rect fill="#000000" opacity="0.3" x="2" y="3" width="20" height="4" rx="1"></rect>
    </g>
</svg>
